symbols/web/perm_phone_msg/materialsymbolsoutlined/perm_phone_msg_wght300gradN25_48px.svg

<svg xmlns="http://www.w3.org/2000/svg" height="48" width="48"><path d="M25.25 22.2V8.7q0-.65.525-1.075Q26.3 7.2 27 7.2h12.1q.7 0 1.2.425t.5 1.075v7.7q0 .75-.475 1.25t-1.225.5h-9.55Zm2.2-12.8v6.55Zm0 6.55h11.2V9.4h-11.2Zm11.15 24.8q-5.5 0-11.1-2.85t-10.1-7.35q-4.5-4.5-7.35-10.1-2.85-5.6-2.85-11.1 0-.95.625-1.575T9.35 7.15H15q.75 0 1.3.475t.75 1.325l1.2 5.3q.1.7-.075 1.325t-.575.975l-4.7 4.6q2.9 4.8 6.4 8.225 3.5 3.425 8.05 5.975l4.55-4.7q.5-.5 1.075-.725.575-.225 1.225-.075L39 30.9q.8.2 1.3.8.5.6.5 1.45v5.4q0 .95-.625 1.575t-1.575.625Zm-26.8-21.6 4.15-4q.05-.05.075-.2.025-.15.025-.25l-1.1-5.05q0-.15-.125-.225-.125-.075-.275-.075H9.6q-.1 0-.175.075-.075.075-.075.175-.05 1.95.575 4.325T11.8 19.15Zm26.55 19.4q.15 0 .225-.075.075-.075.075-.175v-4.9q0-.15-.075-.275Q38.5 33 38.3 33l-4.5-.9q-.1-.05-.175-.025-.075.025-.175.125l-4.05 4.2q2.05 1 4.5 1.55t4.45.6ZM29.4 36.4ZM11.8 19.15Z"/></svg>

<svg xmlns="http://www.w3.org/2000/svg" height="48" width="48"><path d="M25.25 22.2V8.7Q25.25 8.05 25.775 7.625Q26.3 7.2 27 7.2H39.1Q39.8 7.2 40.3 7.625Q40.8 8.05 40.8 8.7V16.4Q40.8 17.15 40.325 17.65Q39.85 18.15 39.1 18.15H29.55ZM27.45 9.4V15.95ZM27.45 15.95H38.65V9.4H27.45ZM38.6 40.75Q33.1 40.75 27.5 37.9Q21.9 35.05 17.4 30.55Q12.9 26.05 10.05 20.45Q7.2 14.85 7.2 9.35Q7.2 8.4 7.825 7.775Q8.45 7.15 9.35 7.15H15Q15.75 7.15 16.3 7.625Q16.85 8.1 17.05 8.95L18.25 14.25Q18.35 14.95 18.175 15.575Q18 16.2 17.6 16.55L12.9 21.15Q15.8 25.95 19.3 29.375Q22.8 32.8 27.35 35.35L31.9 30.65Q32.4 30.15 32.975 29.925Q33.55 29.7 34.2 29.85L39 30.9Q39.8 31.1 40.3 31.7Q40.8 32.3 40.8 33.15V38.55Q40.8 39.5 40.175 40.125Q39.55 40.75 38.6 40.75ZM11.8 19.15 15.95 15.15Q16 15.1 16.025 14.95Q16.05 14.8 16.05 14.7L14.95 9.65Q14.95 9.5 14.825 9.425Q14.7 9.35 14.55 9.35H9.6Q9.5 9.35 9.425 9.425Q9.35 9.5 9.35 9.6Q9.3 11.55 9.925 13.925Q10.55 16.3 11.8 19.15ZM38.35 38.55Q38.5 38.55 38.575 38.475Q38.65 38.4 38.65 38.3V33.4Q38.65 33.25 38.575 33.125Q38.5 33 38.3 33L33.8 32.1Q33.7 32.05 33.625 32.075Q33.55 32.1 33.45 32.2L29.4 36.4Q31.45 37.4 33.9 37.95Q36.35 38.5 38.35 38.55ZM29.4 36.4Q29.4 36.4 29.4 36.4Q29.4 36.4 29.4 36.4Q29.4 36.4 29.4 36.4Q29.4 36.4 29.4 36.4Q29.4 36.4 29.4 36.4Q29.4 36.4 29.4 36.4Q29.4 36.4 29.4 36.4Q29.4 36.4 29.4 36.4ZM11.8 19.15Q11.8 19.15 11.8 19.15Q11.8 19.15 11.8 19.15Q11.8 19.15 11.8 19.15Q11.8 19.15 11.8 19.15Q11.8 19.15 11.8 19.15Q11.8 19.15 11.8 19.15Q11.8 19.15 11.8 19.15Q11.8 19.15 11.8 19.15Z"/></svg>
